X:113
T: Die Schlangenkoechin
N: Q1079D
O: Osteuropa, Tschechoslowakei, Boehmen
N: Melodievergleich zu Q0079E ff, anderes Lied.
R: geistlich; Reigen - Tanz
M: 6/8
L: 1/8
K: D
 | D2DF2G | A2AA3 |
B2cd2c | B3A3 |
d2dA2A | B2BA3 |
A3A3 | B2BA3 |
A2GF2E | D3D3

@@@ Tune index: 1168
